X:65
T:Mr. Anderson's Strathspey
C:R. Petrie
S:Petrie's Second Collection of Strathspey Reels and Country Dances &c.
Z:Steve Wyrick , 6/11/04
N:Petrie's Second Collection, page 23
L:1/8
M:C
R:Strathspey
K:D
E|DAFA   d/c/B/A/ FD|=C<CTE>D C2CE  |DAFA   d/c/B/A/ FD|E<E e>c d2d  :|
f|d<df>d g>ef>d     |eeed    =c2ce  |d<df>d g>ef<d     |e<ea>f  d2(df)|
  d<df>d g>ef>d     |e<ee>d  =c2(cg)|f<ae<f d<fB<d     |E<Ee>c  d2d  |]
